X: 43
T:Pat Clark's
R:Reel
C:Ed Reavy
M:4/4
L:1/8
Z:Joe Reavy
N:Ed learned some of the basics of 
N:fiddle playing from this 
N:old Cavan friend who died in 1969 
N:(just a short time after our visit there). 
N:It was also through Pat that Ed 
N:(and his brother George) joined the local 
N:fife and drum corps in Cootehill. The tunes 
N:he learned stimulated an interest 
N:in the old marches. Pat also taught 
N:him a few traditional tunes that he 
N:himself had mastered on the fiddle.
K:D
D2 (3FED FAAc|defd  gbeg|fedf ecAF|GBAG EDCE|
D2 (3FED FAAc|defd gbeg|fedf edce|1dBAF DA,G,A,:|
[2dBAF D3 g||fedf ecAF|GBAF GEEF|DFAF EGBG|
FAdf e2 fg|afbf gfec|defd AGFA|(3GGG BG (3FFF AF|
[1EDCE D3 g:|2EDCE DA,G,A,||
